!!!!SEGMENT: pl-wumfc--r282--002-016_paderewski-ignacy-jan--exercises-2-exercise-16.krn
!!!cenid: 18xx:3191
!!!COM: Paderewski, Ignacy Jan
!!!COM-rismid: pe30029943
!!!CDT: 1860/11/18-1941/06/29
!!!CNT: Polish
!!!GTL: [Exercises 2]
!!!OTL: [Exercise] 16
!!!OMV: 016
!!!PDT:
!!!AGN:
!!!SMS-siglum: PL-Wumfc
!!!SMS-shelfmark: R282
!!!SMS-shelfwork: 002-016 G
!!!SMS-variant:
!!!SMS-altvar:
!!!NIFC-rismid: 1001158933
!!!URL-scan: http://repozytorium.nifc.pl/skany/pl-wumfc--r282
!!!ONB-nifc: UWAGA: druga grupa ćwiczeń od skanu 0008
!!!OMD:
!!!key: G
**kern	**kern
*part1	*part1
*staff2	*staff1
*I"Fortepian	*I"Fortepian
*Ipiano	*Ipiano
*ICklav	*ICklav
*clefF4	*clefG2
*k[f#]	*k[f#]
*G:	*G:
*M4/4	*M4/4
*^	*^
!	!	!LO:TX:a:t=C. f	!
4G/	4GG\	4g/	4g\
=1	=1	=1	=1
4E/	4E\	4g/	4B\
4F#/	4D\	4f#/	4d\
4G/	4C\	4e/	4e\
4F#/	4D\	4d/	[<4B\
=2	=2	=2	=2
4E/	4E\	4g/	4B\]
4F#/	4D\	4a/	[<4d\
4G;>/	4GG\	4b;>/	4d\]
4G/	4G\	4b/	4B\
=3	=3	=3	=3
4G/	4E\	4b/	4e\
4F#/	4D\	4b/	4f#\
4A/	4C\	4a/	[<4e\
4c/	4E\	4g/	4e\]
=4	=4	=4	=4
4A/	4AA\	4cc/	4c\
4G/	4BB\	4b/	4d\
4A;>/	4C;>\	4a;>/	4c;>\
4E/	4E\	4g/	4B\
=5	=5	=5	=5
4F#/	4D\	4a/	[<4d\
4G/	4GG\	4b/	4d\]
4E/	4AA\	4a/	4c\
4D/	4BB\	4g/	4d\
!!LO:LB:g=original
=6	=6	=6	=6
4E/	4C\	4e/	4G\
4D#X/	4BB\	4f#/	[<4B\
4E;>/	4EE;>\	4g;>/	4B\]
4F#/	4BB\	4dd/	[<4d\
=7	=7	=7	=7
[>4G/	4GG\	4b/	4d\]
4G/]	4E\	4g/	4e\
4F#/	4D\	4a/	4f#\
4A/	4AA\	4cc/	4e\
=8	=8	=8	=8
4G/	4BB\	4b/	4g\
4A/	4D\	4a/	4f#\
4B;>/	4GG\	4g;>/	4g\
4ryy	4ryy	4ryy	4ryy
*v	*v	*	*
*	*v	*v
==	==
*-	*-
!!!system-decoration: [(s1,s2)]
!!!RDF**kern: < = below
!!!RDF**kern: > = above
!!!AIN: 1 piano
!!!ENC: Anastazja Marusiak
!!!END: 2021-11-13
!!!ENC: Marta Chmielewska
!!!END: 2021-11-16
